assets/landing-page/Asset/loan.svg

<svg width="24" height="24" viewBox="0 0 24 24" fill="none" xmlns="http://www.w3.org/2000/svg">
<path d="M13.5295 8.35186C12.9571 8.75995 12.2566 9 11.5 9C9.567 9 8 7.433 8 5.5C8 3.567 9.567 2 11.5 2C12.753 2 13.8522 2.65842 14.4705 3.64814M6 20.0872H8.61029C8.95063 20.0872 9.28888 20.1277 9.61881 20.2086L12.3769 20.8789C12.9753 21.0247 13.5988 21.0388 14.2035 20.9214L17.253 20.3281C18.0585 20.1712 18.7996 19.7854 19.3803 19.2205L21.5379 17.1217C22.154 16.5234 22.154 15.5524 21.5379 14.9531C20.9832 14.4134 20.1047 14.3527 19.4771 14.8103L16.9626 16.6449C16.6025 16.9081 16.1643 17.0498 15.7137 17.0498H13.2855L14.8311 17.0498C15.7022 17.0498 16.4079 16.3633 16.4079 15.5159V15.2091C16.4079 14.5055 15.9156 13.892 15.2141 13.7219L12.8286 13.1417C12.4404 13.0476 12.0428 13 11.6431 13C10.6783 13 8.93189 13.7988 8.93189 13.7988L6 15.0249M20 6.5C20 8.433 18.433 10 16.5 10C14.567 10 13 8.433 13 6.5C13 4.567 14.567 3 16.5 3C18.433 3 20 4.567 20 6.5ZM2 14.6L2 20.4C2 20.9601 2 21.2401 2.10899 21.454C2.20487 21.6422 2.35785 21.7951 2.54601 21.891C2.75992 22 3.03995 22 3.6 22H4.4C4.96005 22 5.24008 22 5.45399 21.891C5.64215 21.7951 5.79513 21.6422 5.89101 21.454C6 21.2401 6 20.9601 6 20.4V14.6C6 14.0399 6 13.7599 5.89101 13.546C5.79513 13.3578 5.64215 13.2049 5.45399 13.109C5.24008 13 4.96005 13 4.4 13L3.6 13C3.03995 13 2.75992 13 2.54601 13.109C2.35785 13.2049 2.20487 13.3578 2.10899 13.546C2 13.7599 2 14.0399 2 14.6Z" stroke="#A67003" stroke-width="2" stroke-linecap="round" stroke-linejoin="round"/>
</svg>

<svg xmlns="http://www.w3.org/2000/svg" width="24" height="24" fill="none" viewBox="0 0 24 24"><path stroke="#a67003" stroke-linecap="round" stroke-linejoin="round" stroke-width="2" d="M13.53 8.352a3.5 3.5 0 1 1 .941-4.704M6 20.088h2.61q.512 0 1.009.12l2.758.67a4.3 4.3 0 0 0 1.826.043l3.05-.593a4.2 4.2 0 0 0 2.127-1.107l2.158-2.1a1.503 1.503 0 0 0 0-2.168 1.61 1.61 0 0 0-2.06-.143l-2.515 1.835a2.12 2.12 0 0 1-1.25.405h-2.427 1.545c.871 0 1.577-.687 1.577-1.534v-.307c0-.703-.492-1.317-1.194-1.487l-2.385-.58A5 5 0 0 0 11.643 13c-.965 0-2.711.799-2.711.799L6 15.025M20 6.5a3.5 3.5 0 1 1-7 0 3.5 3.5 0 0 1 7 0M2 14.6v5.8c0 .56 0 .84.109 1.054a1 1 0 0 0 .437.437C2.76 22 3.04 22 3.6 22h.8c.56 0 .84 0 1.054-.109a1 1 0 0 0 .437-.437C6 21.24 6 20.96 6 20.4v-5.8c0-.56 0-.84-.109-1.054a1 1 0 0 0-.437-.437C5.24 13 4.96 13 4.4 13h-.8c-.56 0-.84 0-1.054.109a1 1 0 0 0-.437.437C2 13.76 2 14.04 2 14.6"/></svg>
